X: 1
T: Polska = "\AA herre Gud n\aa je va brud"
O: Boda
M: 3/4
L: 1/8
Z: 2009 John Chambers <jc:trillian.mit.edu>
S: handwritten MS by JC from the 1970s
K: G
d/ \
|: "G"d>g b2- b>g | a>f g2- g>d \
| B>d g>f a>g | "C"f2 e4 \
| "D7"A>c a2 a>g | f>e d2- d>g |
|1,3 f>e d>e d>c | "G"c2 B4 \
:|2,4 "D7"f>e d>d e>g | fa "G"g4 :|\
d/- \
|: "G"g2 Bd B>d | g2 Bd B>d |
| (3gfg a2- a>g \
|1 "D7"f2 AB A>B | c2 AB A>B | (3aga b2- b>a \
:|2 "D7"f>e d>d e>g | fa "G"g4 |]
